icons/svg/icons8/basketball.svg

<svg width="26" height="26" viewBox="0 0 26 26" fill="none" xmlns="http://www.w3.org/2000/svg">
<path d="M13 2.18799C18.962 2.18799 23.813 7.03899 23.813 13.001C23.813 18.963 18.962 23.813 13 23.813C7.03799 23.813 2.18799 18.962 2.18799 13C2.18799 7.03799 7.03799 2.18799 13 2.18799ZM13 0.187988C5.92399 0.187988 0.187988 5.92399 0.187988 13C0.187988 20.076 5.92399 25.813 13 25.813C20.076 25.813 25.813 20.076 25.813 13C25.813 5.92399 20.076 0.187988 13 0.187988Z" fill="#333333"/>
<path d="M20.5392 4.27301C20.5392 4.27301 14.2142 8.21701 15.0002 15C15.5492 19.735 20.7322 21.426 20.7322 21.426" stroke="#333333" stroke-width="1.6" stroke-miterlimit="10" stroke-linecap="round" stroke-linejoin="round"/>
<path d="M4.53906 5.27301C4.53906 5.27301 6.00006 8.38401 6.00006 14C6.00006 17.97 4.73206 19.426 4.73206 19.426" stroke="#333333" stroke-width="1.6" stroke-miterlimit="10" stroke-linecap="round" stroke-linejoin="round"/>
<path d="M2 12C2 12 5 15 13 15C21 15 24 12 24 12" stroke="#333333" stroke-width="1.6" stroke-miterlimit="10" stroke-linecap="round" stroke-linejoin="round"/>
<path d="M13 2C13 2 10 5.547 10 13C10 20.453 13 24 13 24" stroke="#333333" stroke-width="1.6" stroke-miterlimit="10" stroke-linecap="round" stroke-linejoin="round"/>
</svg>

<?xml version="1.0" encoding="utf-8"?>
<!-- Generator: Adobe Illustrator 15.0.0, SVG Export Plug-In . SVG Version: 6.00 Build 0)  -->
<!DOCTYPE svg PUBLIC "-//W3C//DTD SVG 1.1//EN" "http://www.w3.org/Graphics/SVG/1.1/DTD/svg11.dtd">
<svg version="1.1" id="Layer_1" xmlns="http://www.w3.org/2000/svg" xmlns:xlink="http://www.w3.org/1999/xlink" x="0px" y="0px"
	 width="26px" height="26px" viewBox="0 0 26 26" enable-background="new 0 0 26 26" xml:space="preserve">
<rect fill="none" width="26" height="26"/>
<g>
	<path fill="#333333" d="M13,2.188c5.962,0,10.813,4.851,10.813,10.813S18.962,23.813,13,23.813S2.188,18.962,2.188,13
		S7.038,2.188,13,2.188 M13,0.188C5.924,0.188,0.188,5.924,0.188,13S5.924,25.813,13,25.813S25.813,20.076,25.813,13
		S20.076,0.188,13,0.188L13,0.188z"/>
</g>
<path fill="none" stroke="#333333" stroke-width="1.6" stroke-linecap="round" stroke-linejoin="round" stroke-miterlimit="10" d="
	M20.539,4.273c0,0-6.325,3.944-5.539,10.727c0.549,4.735,5.732,6.426,5.732,6.426"/>
<path fill="none" stroke="#333333" stroke-width="1.6" stroke-linecap="round" stroke-linejoin="round" stroke-miterlimit="10" d="
	M4.539,5.273C4.539,5.273,6,8.384,6,14c0,3.97-1.268,5.426-1.268,5.426"/>
<path fill="none" stroke="#333333" stroke-width="1.6" stroke-linecap="round" stroke-linejoin="round" stroke-miterlimit="10" d="
	M2,12c0,0,3,3,11,3s11-3,11-3"/>
<path fill="none" stroke="#333333" stroke-width="1.6" stroke-linecap="round" stroke-linejoin="round" stroke-miterlimit="10" d="
	M13,2c0,0-3,3.547-3,11s3,11,3,11"/>
</svg>
